X:1
T:Title
%%score ( 1 2 ) { 3 | 4 }
L:1/8
Q:1/4=125
M:3/4
K:F
V:1 treble nm="Grand Piano, Soprano"
V:2 treble 
V:3 bass nm="Choir Pad, Be Not Afraid (Parshley)"
V:4 bass 
V:1
 [FA][FB] [Fc]2 [Fd]2 | [Fc]2 [FA]2 [F_A]2 | [FA]2 [EB]3 [EB] | [EB]2 [EB]4 | %4
w: By~Carrie~Esther~Parker~Rounsefell * * *||||
 [EB][EB] [FA]2 [FA]2 | [FA]2 [FA]2 [FG]2 | F2 [EG]4- | [EG]6 | C[CF] [FA]2 [FA]2 | [FA]2 [FA]4 | %10
w: ||||||
 [_EG][EA] [DB]2 [DA]2 | [DB]2 [B,D]4 | [CE][B,D] [A,C]2 [CF]2 | [FA]2 [EB]2 [EG]2 | [CE]2 [CF]4- | %15
w: |||||
 [CF]6 | [CE][CF] [EG]2 [_E^F]2 | [EG]2 [EB]2 [B,D]2 | [CE]2 [CF]2 [DF]2 | [EG]2 [FA]4 | %20
w: |||||
 [FA][FA] [EG]2 [EG]2 | [Gc]2 [F=B]2 [FA]2 | [F=B]2 [Ec]4- | [Ec]6 | [FA][FB] [Fc]2 [Fd]2 | %25
w: |||||
 [Fc]2 [FA]4 | [_EG][EA] [DB]2 [DA]2 | [DB]2 [B,D]4 | [_A,E][A,D] [=A,C]2 [CF]2 | %29
w: ||||
 [FA]2 [EB]2 [EG]2 | z2 F4- | F6 | z2 [EG]2 [_E^F]2 | [EG]2 [EB]2 [B,D]2 | [CE]2 [CF]4- | %35
w: ||||||
 [CF]2 [FA]4 | z2 [F=B]2 [FA]2 | [FG]2 [F=B]2 [Fc]2 | [Fd]2 [Ec]4- | [Ec]6 | [FA][FB] [Fc]2 [Fd]2 | %41
w: ||||||
 [Fc]2 [FA]4 | [_EG][EA] [DB]2 [DA]2 | [DB]2 [B,D]4 | [CE][_A,D] [=A,C]2 [CF]2 | %45
w: ||||
 [FA]2 [EB]2 [EG]2 | z2 F4- | F6- | F2 z2 z2 |] %49
w: ||||
V:2
 x6 | x6 | x6 | x6 | x6 | x6 | x6 | x6 | x6 | x6 | x6 | x6 | x6 | x6 | x6 | x6 | x6 | x6 | x6 | %19
 x6 | x6 | x6 | x6 | x6 | x6 | x6 | x6 | x6 | x6 | x6 | [CE]2 C2 D2 | ^C2 =C4 | x6 | x6 | x6 | x6 | %36
 x6 | x6 | x6 | x6 | x6 | x6 | x6 | x6 | x6 | x6 | [CE]2 C2 D2 | ^C2 =C4- | C2 z2 z2 |] %49
V:3
 CB, A,2 B,2 | A,2[K:treble] C2 =B,2 | C2 C3 C | C2 C4 | CC C2 C2 | C2[K:bass] =B,2 B,2 | %6
 =B,2 C4- | C2 B,4 | A,A,[K:treble] C2 C2 | C2 C4 | C[K:bass]F, F,2 F,2 | F,2 F,4 | F,F, F,2 A,2 | %13
 C2 G,2 B,2 | B,2 A,4- | A,6 | G,G, B,2 B,2 | B,2 G,2 F,2 | B,2 A,2 A,2 | C2 C4 | CC C2 C2 | %21
 E2 D2 C2 | D2 C4- | C6 | C[K:bass]B, A,2 B,2 | A,2 C4 | CF, F,2 F,2 | F,2 F,4 | F,F, F,2 A,2 | %29
 C2 G,2 B,2 | B,2 A,2 B,2 | B,2 A,4 | z2 B,2 A,2 | B,2 G,2 G,2 | B,2 A,4- | A,2 C4 | %36
 z2[K:treble] D2 C2 | B,2 D2 A,2 | =B,2 C4- | C6 | C[K:bass]B, A,2 B,2 | A,2 C4 | CF, F,2 F,2 | %43
 F,2 F,4 | F,F, F,2 A,2 | C2 G,2 B,2 | B,2 A,2 B,2 | B,2 A,4- | A,2 z2 z2 |] %49
V:4
 F,F, F,2 F,2 | F,2 F,2 F,2 | F,2 G,3 G, | G,2 C,4 | C,C, F,2 F,2 | F,2 D,2 D,2 | G,,2 C,4- | C,6 | %8
 F,F, F,2 F,2 | F,2 F,4 | .F,2 B,,2 B,,2 | B,,2 B,,4 | B,,B,, C,2 C,2 | C,2 C,2 C,2 | C,2 F,4- | %15
 F,6 | C,C, C,2 C,2 | C,2 C,2 C,2 | C,2 F,2 D,2 | C,2 F,4 | F,F, G,2 G,2 | G,2 G,2 G,2 | G,2 C,4- | %23
 C,6 | F,F, F,2 F,2 | F,2 F,4 | .F,2 B,,2 B,,2 | B,,2 B,,4 | =B,,B,, C,2 C,2 | C,2 C,2 C,2 | %30
 C,2 F,4- | F,6 | z2 C,2 C,2 | C,2 C,2 C,2 | C,2 F,4- | F,2 F,4 | z2 G,2 G,2 | G,2 G,2 G,2 | %38
 G,2 C,4- | C,6 | F,F, F,2 F,2 | F,2 F,4 | .F,2 B,,2 B,,2 | B,,2 B,,4 | B,,=B,, C,2 C,2 | %45
 C,2 C,2 C,2 | C,2 F,4- | F,6- | F,2 z2 z2 |] %49

